X:1
T:Title
%%score ( 1 2 ) { ( 3 5 ) | 4 }
L:1/8
Q:1/4=100
M:4/4
K:Ab
V:1 treble nm="Grand Piano, Piano"
V:2 treble 
V:3 bass nm="Grand Piano, Piano"
V:5 bass 
V:4 bass 
V:1
 [CA]3 [CA] [EA]2 [CA]2 | [Ec]3 [EB] BA [EA]2 | [EB]3 [EB] [EB]2 [EB]2 | [Ed]3 [Ec] B2- [DB]2 | %4
w: 1.~Hark,~ the~ voice~ of~|Je sus~ cal * ling,~|"Who~ will~ go~ and~|work~ to day?~ *|
 [CA]3 [DA] [CA]2 [CA]2 | [Ec]3 [EB] BA [EA]2 | [EB]2 [=DB]2 Bd[Ec][FB] | [EA]2 [DG]2 [CA]4 | %8
w: Fields~ are~ white,~ and~|har vests~ wait * ing,~|Who~ will~ bear~ * the~ *|sheaves~ a way?"~|
 [EB]3 [EB] [DB]2 [DB]2 | [CB]3 [CA] AG [DG]2 | [Cc]3 [Ec] [Ec]2 [Ec]2 | [Ed]3 [Ec] B2- [DB]2 | %12
w: Loud~ and~ long~ the~|Mas ter~ calls~ * us,~|Rich~ re ward~ He~|of fers~ free;~ *|
 [CA]3 [DA] [CA]2 [CA]2 | [Ec]3 [EB] BA [EA]2 | [EB]2 [=DB]2 Bd[Ec][FB] | [EA]2 [DG]2 [CA]4 |] %16
w: Who~ will~ ans wer,~|glad ly~ sa * ying,~|"Here~ am~ I,~ * send~ *|me,~ send~ me"?~|
V:2
 x8 | z4 E2 z2 | x8 | z4 E2 z2 | x8 | z4 E2 z2 | z4 E2 z2 | x8 | x8 | z4 D2 z2 | x8 | z4 E2 z2 | %12
 x8 | z4 E2 z2 | z4 E2 z2 | x8 |] %16
V:3
 E,3 E, A,2 A,2 | A,3[K:treble] D DC C2 | G,3[K:bass] G, G,2 G,2 | B,3 A, G,4 | A,3 F, E,2 A,2 | %5
 A,3[K:treble] D DC C2 | G,2[K:bass] A,2 z B,A,D | C2 B,E, E,4 | G,3 G, G,2 G,2 | A,3 A, B,2 B,2 | %10
 A,3 A, A,2 A,2 | B,3 A, G,4 | A,3 F, E,2 A,2 | A,3[K:treble] D DC C2 | G,2[K:bass] A,2 z B,A,D | %15
 C2 B,E, E,4 |] %16
V:4
 A,,3 A,, C,2 E,2 | z2 z E, E,2 A,,2 | E,3 E, E,2 E,2 | G,4 E,4 | A,,3 A,, A,,2 A,,2 | %5
 E,3 E, A,,2 A,,2 | E,2 F,2 z2 z D, | E,2 .E,2 A,,4 | E,3 E, E,2 E,2 | E,3 E, E,2 E,2 | z8 | %11
 G,4 E,4 | A,,3 A,, A,,2 A,,2 | E,3 E, A,,2 A,,2 | E,2 F,2 z2 z D, | E,2 .E,2 A,,4 |] %16
V:5
 x8 | x3[K:treble] x5 | x3[K:bass] x5 | x8 | x8 | x3[K:treble] x5 | z4[K:bass] G,2 z2 | x8 | x8 | %9
 x8 | x8 | x8 | x8 | x3[K:treble] x5 | z4[K:bass] G,2 z2 | x8 |] %16

